rospo-newyear-dark/symbolic/emotes/face-smile-big-symbolic.svg

<svg height="16" width="16" xmlns="http://www.w3.org/2000/svg"><path d="m8 1c-3.87 0-7 3.14-7 7 0 3.87 3.13 7 7 7s7-3.13 7-7c0-3.86-3.13-7-7-7zm-3 4c .55 0 1 .45 1 1s-.45 1-1 1-1-.45-1-1 .45-1 1-1zm6 0c .55 0 1 .45 1 1s-.45 1-1 1-1-.45-1-1 .45-1 1-1zm-7.58 5h9.16c-.79 1.82-2.58 3-4.58 3-1.99 0-3.78-1.18-4.58-3z" fill="#d3dae3"/></svg>

<svg xmlns="http://www.w3.org/2000/svg" width="16" height="16" version="1.1">
 <path style="fill:#d3dae3" d="M 8,1 C 4.13,1 1,4.14 1,8 1,11.87 4.13,15 8,15 11.87,15 15,11.87 15,8 15,4.14 11.87,1 8,1 Z M 5,5 C 5.55,5 6,5.45 6,6 6,6.55 5.55,7 5,7 4.45,7 4,6.55 4,6 4,5.45 4.45,5 5,5 Z M 11,5 C 11.55,5 12,5.45 12,6 12,6.55 11.55,7 11,7 10.45,7 10,6.55 10,6 10,5.45 10.45,5 11,5 Z M 3.42,10 H 12.58 C 11.79,11.82 10,13 8,13 6.01,13 4.22,11.82 3.42,10 Z"/>
</svg>
